X:1
T:Jernbane Damp Galopp
C:Hans Christian Lumbye
Q:Larghetto
K:C
M:3/4
L:1/4
V:1 name="Trumpet in Bb 1" snm="Tpt 1"
!p!(G2/3 c/B/c/ | e3) | (G2/3 c/B/c/ | e3) | (e3/2 c/B/A/ | B2) (E | A3/2 A/^G/A/ | B2) B | P:1 !<(! (c2 e) !<)! | !>(! g3 !>)! | !<(! (c2 e) !<)! |
!>(! f3 !>)! |
